src/pos-icons/shield-refresh-outline.svg

<svg height="24" viewBox="0 0 24 24" width="24" xmlns="http://www.w3.org/2000/svg"><path d="m12 21c-3.8-1-7-5.5-7-9.8v-4.9l7-3.1 7 3.1v5.8c.7.1 1.3.3 1.9.6.1-.6.1-1.1.1-1.7v-6l-9-4-9 4v6c0 5.5 3.8 10.7 9 12 .4-.1.7-.2 1-.3-.4-.5-.8-1.1-1-1.7m6-6.5c1.1 0 2.1.4 2.8 1.2l1.2-1.2v4h-4l1.8-1.8c-.5-.4-1.1-.7-1.8-.7-1.4 0-2.5 1.1-2.5 2.5s1.1 2.5 2.5 2.5c.8 0 1.5-.4 2-1h1.7c-.6 1.5-2 2.5-3.7 2.5-2.2 0-4-1.8-4-4s1.8-4 4-4z"/></svg>

<?xml version="1.0" encoding="UTF-8"?><!DOCTYPE svg PUBLIC "-//W3C//DTD SVG 1.1//EN" "http://www.w3.org/Graphics/SVG/1.1/DTD/svg11.dtd"><svg xmlns="http://www.w3.org/2000/svg" xmlns:xlink="http://www.w3.org/1999/xlink" version="1.1" id="mdi-shield-refresh-outline" width="24" height="24" viewBox="0 0 24 24"><path d="M12 21C8.2 20 5 15.5 5 11.2V6.3L12 3.2L19 6.3V12.1C19.7 12.2 20.3 12.4 20.9 12.7C21 12.1 21 11.6 21 11V5L12 1L3 5V11C3 16.5 6.8 21.7 12 23C12.4 22.9 12.7 22.8 13 22.7C12.6 22.2 12.2 21.6 12 21M18 14.5C19.1 14.5 20.1 14.9 20.8 15.7L22 14.5V18.5H18L19.8 16.7C19.3 16.3 18.7 16 18 16C16.6 16 15.5 17.1 15.5 18.5S16.6 21 18 21C18.8 21 19.5 20.6 20 20H21.7C21.1 21.5 19.7 22.5 18 22.5C15.8 22.5 14 20.7 14 18.5S15.8 14.5 18 14.5Z" /></svg>
